assets/svg/single/topdevelopers.svg

<svg width="160" height="28" viewBox="0 0 160 28" fill="none" xmlns="http://www.w3.org/2000/svg">
<path d="M40.1428 6.85718H49.5V8.42861H45.5714V19.9286H43.9285V8.42861H40.1428V6.85718Z" fill="black"/>
<path d="M52.3572 10.3572C55.6429 10.3572 56.6429 11.5715 56.6429 15.3572C56.6429 18.8572 55.6429 20.0715 52.3572 20.0715C49.0714 20.0715 48.0714 18.7857 48.0714 15.3572C48.0714 11.4286 49.1429 10.3572 52.3572 10.3572ZM52.3572 18.5C54.1429 18.5 55 18.2857 55 15.2857C55 12.0715 54.3572 11.8572 52.3572 11.8572C50.5 11.8572 49.7143 12.1429 49.7143 15.2857C49.7143 18.2857 50.5714 18.5 52.3572 18.5Z" fill="black"/>
<path d="M58.6429 10.4286H59.9286L60.2857 11.4286C60.7857 11.0715 62.5 10.2858 63.6429 10.2858C66.2143 10.2858 66.7857 12.7143 66.7857 15.0715C66.7857 17.5715 66.3572 20.0001 63.6429 20.0001C62.8572 20.0001 61.3572 19.7858 60.2143 19.2858V24.6429H58.5714V10.4286H58.6429ZM63.5 18.5715C64.5714 18.5715 65.1429 17.9286 65.1429 15.1429C65.1429 12.8572 64.5714 11.8572 63.5 11.8572C62.2143 11.8572 61.1429 12.2143 60.2857 12.6429V18.1429C61.3572 18.4286 62.2143 18.5715 63.5 18.5715Z" fill="black"/>
<path d="M69.2143 6.85718H74.3572C78.3572 6.85718 79.0714 10.6429 79.0714 13.4286C79.0714 16.6429 77.7857 19.9286 74.3572 19.9286H69.2143V6.85718ZM74.2857 18.2857C76.5 18.2857 77.3572 16.0715 77.3572 13.3572C77.3572 9.64289 76.2143 8.35718 74.2857 8.35718H70.8571V18.2857H74.2857Z" fill="black"/>
<path d="M84.6428 10.3572C87.0714 10.3572 88.4285 10.5715 88.4285 13.7143C88.4285 15.1429 87.6428 15.9286 85.8571 15.9286H82.1428C82.1428 18 82.6428 18.4286 83.9999 18.4286C85.6428 18.4286 86.9285 18.4286 88.2857 18.2143V19.4286C86.8571 19.8572 85.1428 19.9286 83.6428 19.9286C81.2142 19.9286 80.4999 18.7143 80.4999 15.0715C80.4285 10.9286 81.6428 10.3572 84.6428 10.3572ZM85.7142 14.5715C86.4285 14.5715 86.7857 14.2857 86.7857 13.7143C86.7857 12 86.4999 11.8572 84.7142 11.8572C82.8571 11.8572 82.1428 11.8572 82.1428 14.5715H85.7142Z" fill="black"/>
<path d="M91.2857 10.4286L94.0715 17.7143L96.8572 10.4286H98.6429L94.8572 19.9286H93.1429L89.5 10.4286H91.2857Z" fill="black"/>
<path d="M103.857 10.3572C106.286 10.3572 107.643 10.5715 107.643 13.7143C107.643 15.1429 106.857 15.9286 105.071 15.9286H101.286C101.286 18 101.786 18.4286 103.143 18.4286C104.786 18.4286 106.071 18.4286 107.429 18.2143V19.4286C106 19.8572 104.286 19.9286 102.786 19.9286C100.357 19.9286 99.6429 18.7143 99.6429 15.0715C99.6429 10.9286 100.857 10.3572 103.857 10.3572ZM104.929 14.5715C105.643 14.5715 106 14.2857 106 13.7143C106 12 105.714 11.8572 103.929 11.8572C102.071 11.8572 101.357 11.8572 101.357 14.5715H104.929Z" fill="black"/>
<path d="M109.5 5.92859H111.143V16.4286C111.143 17.9286 111.571 18.2857 112.143 18.4286C112.143 18.4286 113.5 18.7857 113.643 18.7857V19.9286H111.929C110.5 19.9286 109.5 19.0714 109.5 16.5714V5.92859Z" fill="black"/>
<path d="M118.571 10.3572C121.857 10.3572 122.857 11.5715 122.857 15.3572C122.857 18.8572 121.857 20.0715 118.571 20.0715C115.286 20.0715 114.286 18.7857 114.286 15.3572C114.286 11.4286 115.429 10.3572 118.571 10.3572ZM118.571 18.5C120.357 18.5 121.214 18.2857 121.214 15.2857C121.214 12.0715 120.571 11.8572 118.571 11.8572C116.714 11.8572 115.929 12.1429 115.929 15.2857C116 18.2857 116.857 18.5 118.571 18.5Z" fill="black"/>
<path d="M124.929 10.4286H126.214L126.571 11.4286C127.071 11.0715 128.786 10.2858 129.929 10.2858C132.5 10.2858 133.071 12.7143 133.071 15.0715C133.071 17.5715 132.643 20.0001 129.929 20.0001C129.143 20.0001 127.643 19.7858 126.5 19.2858V24.6429H124.857V10.4286H124.929ZM129.714 18.5715C130.786 18.5715 131.357 17.9286 131.357 15.1429C131.357 12.8572 130.786 11.8572 129.714 11.8572C128.429 11.8572 127.357 12.2143 126.5 12.6429V18.1429C127.643 18.4286 128.5 18.5715 129.714 18.5715Z" fill="black"/>
<path d="M139 10.3572C141.429 10.3572 142.786 10.5715 142.786 13.7143C142.786 15.1429 142 15.9286 140.214 15.9286H136.429C136.429 18 136.929 18.4286 138.286 18.4286C139.929 18.4286 141.214 18.4286 142.571 18.2143V19.4286C141.143 19.8572 139.429 19.9286 137.929 19.9286C135.5 19.9286 134.786 18.7143 134.786 15.0715C134.786 10.9286 136 10.3572 139 10.3572ZM140.071 14.5715C140.786 14.5715 141.143 14.2857 141.143 13.7143C141.143 12 140.857 11.8572 139.071 11.8572C137.214 11.8572 136.5 11.8572 136.5 14.5715H140.071Z" fill="black"/>
<path d="M144.643 10.4286H145.929L146.357 11.6429C147.357 11 148.286 10.3572 149.714 10.3572C150.214 10.3572 150.786 10.3572 151 10.5V12.1429C150.786 12.0715 150.143 12.0715 149.643 12.0715C148.286 12.0715 147.571 12.3572 146.357 13.1429V20.0715H144.714V10.4286H144.643Z" fill="black"/>
<path d="M152.143 12.7857C152.143 11.2857 152.786 10.3572 154.643 10.3572C155.857 10.3572 158.571 10.5 159.5 10.7143V11.8572H154.857C153.857 11.8572 153.786 12.2143 153.786 12.7857V13.5C153.786 14.3572 154.214 14.4286 154.857 14.4286H157.571C159.214 14.4286 160 15.4286 160 16.7857V17.7143C160 19.6429 158.786 20.0715 157.643 20.0715C156.5 20.0715 153.214 19.8572 152.571 19.7143V18.5715H157.429C157.5 18.5715 158.357 18.6429 158.357 17.7143V16.9286C158.357 16.3572 158.143 16.0715 157.429 16.0715H154.714C153 16.0715 152.143 15.5 152.143 13.6429V12.7857Z" fill="black"/>
<path fill-rule="evenodd" clip-rule="evenodd" d="M25.7143 0H2.35714C1.07143 0 0 0.857143 0 1.92857V25.7857C0 26.8571 1.07143 27.7143 2.35714 27.7143H25.7143C27 27.7143 28.0714 26.8571 28.0714 25.7857V1.92857C28.1429 0.857143 27.0714 0 25.7143 0Z" fill="black"/>
<path fill-rule="evenodd" clip-rule="evenodd" d="M20.2857 7.85713C20.2857 7.85713 18.7143 5.85713 15.5 5.57141H4.42854V9.14284H7.28569L7.21426 20.9286H11.2857V9.07141H15.5C15.5 9.07141 17.2143 9.2857 17.8571 10.5714C17.8571 10.5714 19.2143 13 17.8571 15.8571C17.8571 15.8571 17.2143 17.0714 15.8571 17.2143L12.5 17.2857V20.8571H15.4285C15.4285 20.8571 16.8571 20.8571 18.2143 20.2857C19 19.9286 19.9285 19.3571 20.4285 18.5714C20.3571 18.5714 24.7857 13.5714 20.2857 7.85713Z" fill="white"/>
</svg>

<svg width="160" height="28" fill="none" xmlns="http://www.w3.org/2000/svg"><path d="M40.143 6.857H49.5V8.43h-3.929v11.5H43.93v-11.5h-3.786V6.857Z" fill="#000"/><path d="M52.357 10.357c3.286 0 4.286 1.215 4.286 5 0 3.5-1 4.715-4.286 4.715-3.286 0-4.286-1.286-4.286-4.715 0-3.928 1.072-5 4.286-5Zm0 8.143c1.786 0 2.643-.214 2.643-3.214 0-3.214-.643-3.429-2.643-3.429-1.857 0-2.643.286-2.643 3.429 0 3 .857 3.214 2.643 3.214ZM58.643 10.429h1.286l.357 1c.5-.357 2.214-1.143 3.357-1.143 2.571 0 3.143 2.428 3.143 4.786 0 2.5-.429 4.928-3.143 4.928-.786 0-2.286-.214-3.429-.714v5.357h-1.643V10.429h.072Zm4.857 8.143c1.071 0 1.643-.643 1.643-3.43 0-2.285-.572-3.285-1.643-3.285-1.286 0-2.357.357-3.214.786v5.5c1.071.286 1.928.428 3.214.428ZM69.214 6.857h5.143c4 0 4.714 3.786 4.714 6.572 0 3.214-1.285 6.5-4.714 6.5h-5.143V6.857Zm5.072 11.429c2.214 0 3.071-2.215 3.071-4.929 0-3.714-1.143-5-3.071-5h-3.429v9.929h3.429ZM84.643 10.357c2.428 0 3.785.215 3.785 3.357 0 1.429-.785 2.215-2.57 2.215h-3.715c0 2.071.5 2.5 1.857 2.5 1.643 0 2.928 0 4.286-.215v1.215c-1.429.428-3.143.5-4.643.5-2.429 0-3.143-1.215-3.143-4.857-.072-4.143 1.143-4.715 4.143-4.715Zm1.071 4.215c.715 0 1.072-.286 1.072-.858 0-1.714-.286-1.857-2.072-1.857-1.857 0-2.571 0-2.571 2.715h3.571ZM91.286 10.429l2.785 7.285 2.786-7.285h1.786l-3.786 9.5h-1.714l-3.643-9.5h1.786ZM103.857 10.357c2.429 0 3.786.215 3.786 3.357 0 1.429-.786 2.215-2.572 2.215h-3.785c0 2.071.5 2.5 1.857 2.5 1.643 0 2.928 0 4.286-.215v1.215c-1.429.428-3.143.5-4.643.5-2.429 0-3.143-1.215-3.143-4.857 0-4.143 1.214-4.715 4.214-4.715Zm1.072 4.215c.714 0 1.071-.286 1.071-.858 0-1.714-.286-1.857-2.071-1.857-1.858 0-2.572 0-2.572 2.715h3.572ZM109.5 5.929h1.643v10.5c0 1.5.428 1.857 1 2 0 0 1.357.357 1.5.357v1.143h-1.714c-1.429 0-2.429-.858-2.429-3.358V5.93ZM118.571 10.357c3.286 0 4.286 1.215 4.286 5 0 3.5-1 4.715-4.286 4.715-3.285 0-4.285-1.286-4.285-4.715 0-3.928 1.143-5 4.285-5Zm0 8.143c1.786 0 2.643-.214 2.643-3.214 0-3.214-.643-3.429-2.643-3.429-1.857 0-2.642.286-2.642 3.429.071 3 .928 3.214 2.642 3.214ZM124.929 10.429h1.285l.357 1c.5-.357 2.215-1.143 3.358-1.143 2.571 0 3.142 2.428 3.142 4.786 0 2.5-.428 4.928-3.142 4.928-.786 0-2.286-.214-3.429-.714v5.357h-1.643V10.429h.072Zm4.785 8.143c1.072 0 1.643-.643 1.643-3.43 0-2.285-.571-3.285-1.643-3.285-1.285 0-2.357.357-3.214.786v5.5c1.143.286 2 .428 3.214.428ZM139 10.357c2.429 0 3.786.215 3.786 3.357 0 1.429-.786 2.215-2.572 2.215h-3.785c0 2.071.5 2.5 1.857 2.5 1.643 0 2.928 0 4.285-.215v1.215c-1.428.428-3.142.5-4.642.5-2.429 0-3.143-1.215-3.143-4.857 0-4.143 1.214-4.715 4.214-4.715Zm1.071 4.215c.715 0 1.072-.286 1.072-.858 0-1.714-.286-1.857-2.072-1.857-1.857 0-2.571 0-2.571 2.715h3.571ZM144.643 10.429h1.286l.428 1.214c1-.643 1.929-1.286 3.357-1.286.5 0 1.072 0 1.286.143v1.643c-.214-.072-.857-.072-1.357-.072-1.357 0-2.072.286-3.286 1.072v6.928h-1.643V10.43h-.071ZM152.143 12.786c0-1.5.643-2.429 2.5-2.429 1.214 0 3.928.143 4.857.357v1.143h-4.643c-1 0-1.071.357-1.071.929v.714c0 .857.428.929 1.071.929h2.714c1.643 0 2.429 1 2.429 2.357v.928c0 1.929-1.214 2.358-2.357 2.358-1.143 0-4.429-.215-5.072-.358v-1.142h4.858c.071 0 .928.07.928-.858v-.785c0-.572-.214-.857-.928-.857h-2.715c-1.714 0-2.571-.572-2.571-2.43v-.856Z" fill="#000"/><path fill-rule="evenodd" clip-rule="evenodd" d="M25.714 0H2.357C1.071 0 0 .857 0 1.929v23.857c0 1.071 1.071 1.928 2.357 1.928h23.357c1.286 0 2.357-.857 2.357-1.928V1.929C28.143.857 27.071 0 25.714 0Z" fill="#000"/><path fill-rule="evenodd" clip-rule="evenodd" d="M20.286 7.857s-1.572-2-4.786-2.286H4.429v3.572h2.857l-.072 11.786h4.072V9.07H15.5s1.714.215 2.357 1.5c0 0 1.357 2.429 0 5.286 0 0-.643 1.214-2 1.357l-3.357.072v3.571h2.928s1.43 0 2.786-.571c.786-.357 1.715-.929 2.215-1.715-.072 0 4.357-5-.143-10.714Z" fill="#fff"/></svg>
